X:0713
T:Better late then never.
M:2/4
L:1/8
Q:1/4=128
I: :: :|
N:rest added to second part to make things add up
Z:Jack Campin * www.campin.me.uk * 2009
K:G
G/A/|BBBd|AA AA/B/|cccd|BB BG/B/|ggff| f2        ed| dc`````````cB       |B2A:|
z   |AABB|dc A2   |BBcc|ed BG/B/|ggff|(e/f/g/e/) d2|(c/B/A/G/) (B/A/G/F/)|Ggg:|

